X:1
T:Title
%%score { ( 1 4 ) | ( 2 3 ) }
L:1/8
Q:1/4=100
M:3/4
K:C
V:1 treble nm="Grand Piano"
V:4 treble 
V:2 bass 
V:3 bass 
V:1
 [CE]2 [EG]2 [Ec]2 | .[FB]2 [CEG]3 [G,EG] | [G,B,D]2 [G,CE]2 [G,DF]2 | [CFA]4 [CEG]2 | %4
w: Mrs.~Joseph~F.~Knapp * *||||
 [G,CE]2 [G,EG]2 [Ec]2 | .[FB]2 [CEG]3 [G,DG] |[M:15/16] [EA]->[EA][DB]- [DB]3- [DB]/[CA] | %7
w: |||
[M:3/4] [B,G]4 z2 | G2 B2 d2 | [Ed]2 [Ec]3 [CEA] | [B,FG]2 [DFB]3 [B,FA] | %11
w: ||||
[M:7/8] E2- [Ec]3 z [G,EG] |[M:3/4] [G,EG]2 [Ec]2 [Ee]2 | e2 d2 A2 | c3 B AB | [Ec]4 z2 |] %16
w: |||||
V:2
 [C,G,]2 [C,G,]2 [C,G,]2 | z A C,3 C, | F,2 E,2 D,2 | C,4 C,2 | C,2 C,2 [C,G,]2 | z A C,3 B,, | %6
[M:15/16] [C,G,]->[C,G,][D,G,]- [D,G,]3- [D,G,]/[D,^F,] |[M:3/4] [G,,G,]4 z2 | %8
 [G,B,F]2 [G,DF]2[K:bass] [G,,B,F]2 | [C,G,]2 [C,G,]3 C, | G,2 G,3 G, |[M:7/8] z2 G,3 z C, | %12
[M:3/4] C,2 [C,G,]2 [C,G,]2 | [F,A,F]2[K:treble] [F,A,F]2 [F,CF]2 | [G,F]3 [G,DF] [G,DF]2 | %15
 [C,C]4 z2 |] %16
V:3
 x6 | [C,A,]2 z2 z2 | x6 | x6 | x6 | [C,A,]2 z2 z2 |[M:15/16] x15/2 |[M:3/4] x6 | x4[K:bass] x2 | %9
 x6 | x6 |[M:7/8] C,-C,- C,3 z2 |[M:3/4] x6 | x2[K:treble] x4 | x6 | x6 |] %16
V:4
 x6 | x6 | x6 | x6 | x6 | x6 |[M:15/16] x15/2 |[M:3/4] x6 | x6 | x6 | x6 |[M:7/8] [CG]2 z z z z2 | %12
[M:3/4] x6 | x6 | x6 | x6 |] %16

